img/logo-GHI.svg

<svg enable-background="new 0 0 1101.6 160.5" viewBox="0 0 1101.6 160.5" xmlns="http://www.w3.org/2000/svg"><g fill="#144367"><path d="m65.2 142.7h-56.5c-6.4 0-8.7-2.3-8.7-8.8 0-37.5 0-74.9 0-112.3 0-6.8 2.2-9 9-9h109.5c1.6 0 3.2 0 4.7.1 4.7.5 6.8 2.7 6.8 7.4v37.6 76.3c0 6.5-2.2 8.7-8.7 8.7zm32-57.3c17.5-.9 26.6-8.3 22.7-18.5-2.9 4-7 4.4-11.4 3.9-2.5-.3-4.9-1.1-7.3-1.4-3.1-.4-4.4-1.7-4.2-5.1.3-8 .1-16 .1-24h-9.1v24.6c-7.7-3.5-14.9-5.7-22.5-4s-13.5 6.2-17.5 13.1c5.4 0 10.8-1 15.5.2 7.7 2 15.1 5.3 22.5 8.3 1 .7 1.5 1.8 1.5 3-.4 7-3.3 12.8-9.1 16.7-7.3 4.9-15.1 5.2-22.8 1.3-8.2-4.1-11.6-11.3-11.7-20.1-.1-12.9 0-25.8 0-38.7v-4.6h-18.1c0 16 0 31.8.1 47.6.1 2 .6 3.9 1.2 5.7 6.6 21.5 36.1 31 55.6 18 9.2-6.2 13.5-15.1 14.5-26z"/><text font-family="'ArialMT'" font-size="55.0091" transform="translate(151.125 142.6626)">University of Antwerp</text><text font-family="'Arial-BoldMT'" font-size="89.5679" transform="translate(151.125 76.8413)">Global Health Institute</text></g></svg>

<?xml version="1.0" encoding="utf-8"?>
<!-- Generator: Adobe Illustrator 22.0.0, SVG Export Plug-In . SVG Version: 6.00 Build 0)  -->
<svg version="1.1" id="Layer_1" xmlns="http://www.w3.org/2000/svg" xmlns:xlink="http://www.w3.org/1999/xlink" x="0px" y="0px"
	 viewBox="0 0 1151.8 160.5" style="enable-background:new 0 0 1151.8 160.5;" xml:space="preserve">
<style type="text/css">
	.st0{fill:#144367;}
	.st1{font-family:'ArialMT';}
	.st2{font-size:55.0091px;}
	.st3{font-family:'Arial-BoldMT';}
	.st4{font-size:89.5679px;}
</style>
<g>
	<path class="st0" d="M65.2,142.7H8.7c-6.4,0-8.7-2.3-8.7-8.8C0,96.4,0,59,0,21.6c0-6.8,2.2-9,9-9h109.5c1.6,0,3.2,0,4.7,0.1
		c4.7,0.5,6.8,2.7,6.8,7.4v37.6V134c0,6.5-2.2,8.7-8.7,8.7H65.2z M97.2,85.4c17.5-0.9,26.6-8.3,22.7-18.5c-2.9,4-7,4.4-11.4,3.9
		c-2.5-0.3-4.9-1.1-7.3-1.4c-3.1-0.4-4.4-1.7-4.2-5.1c0.3-8,0.1-16,0.1-24H88v24.6c-7.7-3.5-14.9-5.7-22.5-4S52,67.1,48,74
		c5.4,0,10.8-1,15.5,0.2c7.7,2,15.1,5.3,22.5,8.3c1,0.7,1.5,1.8,1.5,3c-0.4,7-3.3,12.8-9.1,16.7c-7.3,4.9-15.1,5.2-22.8,1.3
		C47.4,99.4,44,92.2,43.9,83.4c-0.1-12.9,0-25.8,0-38.7v-4.6H25.8c0,16,0,31.8,0.1,47.6c0.1,2,0.6,3.9,1.2,5.7
		c6.6,21.5,36.1,31,55.6,18C91.9,105.2,96.2,96.3,97.2,85.4z"/>
	<text transform="matrix(1 0 0 1 151.125 142.6626)" class="st0 st1 st2">University of Antwerp</text>
	<text transform="matrix(1 0 0 1 151.125 76.8413)" class="st0 st3 st4">Global Health Institute</text>
</g>
</svg>
